X:220
T:Royal Irish Quadrilles No. 5. Le4.220, The
M:2/4
L:1/8
Q:2/4=50
N:* fdd dz in Mss
N:zA/c/ c G/A/ B in Mss
B:L.Leadley MS#4 c1850
Z:Village Music Project 2016 Steve Mansfield
K:D
d'f fe/d/ | Bb ba/g/ | cc cd/e/ | fd d2 |
d'f fe/d/ | Bb ba/g/ | cc cd/e/ | "*"(3fdd d z H |
|: zF zF | zF zF | zF zF | zF zF |
zG zG | zF zF | d/d/d/d/ de | fedc |
d/d/d/d/ d2 | e/e/e/e/ e2 | ddcc | AGFE |
[Dd]z [Fe]z | c2 zd | "**" zA//c// c G//A// B | A z a !D.C.! |]

